X:99003
T:The Merry Reapers
P:The Hundred Pipers
C:Traditional
R:Jig (8x24) ABB
B:RSCDS Gr-3
Z:Anselm Lingnau <anselm@strathspey.org>
M:6/8
L:1/8
K:F
F/G/|"F"A2C CDC|"Bb"D2F F2d|"F"c2A A>GF|"C"[G2E2][GE] [G2E2] F/G/|
     "F"A2C C>DC|"Bb"D2F F2d/d/|"F"c2A "C7"G>AG|"F"F2F F2||
|:A/B/|"F"c2c cAc|"Bb"d2f f2d|"F"c2A "Dm"A>GF|"C"[G2E2][GE] [G2E2] A/B/|
       "F"c2c "C"cde|"Dm"f2f "Bb"f2e/d/|"F"c2A "C7"G>AG|"F"F2F F2:|
